src/Assets/icons/social-playstation.svg

<svg class="svg-icon" viewBox="0 0 76 76" xmlns="http://www.w3.org/2000/svg" xmlns:xlink="http://www.w3.org/1999/xlink" version="1.1" baseProfile="full" enable-background="new 0 0 76.00 76.00" xml:space="preserve">
	<path fill="currentColor" fill-opacity="1" fill-rule="evenodd" stroke-width="0.2" stroke-linejoin="round" d="M 32.2238,48.7456C 32.2238,48.7456 30.4425,49.666 26.4693,49.6195C 22.4962,49.5731 18.9795,48.4711 19.0251,46.0771C 19.0703,43.6831 25.6017,41.0569 32.1778,39.9549L 32.1778,43.3158L 25.1904,45.1567C 25.1904,45.1567 23.9943,46.6767 25.6017,46.7189C 29.2547,46.8244 32.269,45.8449 32.269,45.8449M 40.9921,48.9778L 40.9921,52.1529C 40.9921,52.1529 54.6472,47.7322 56.6565,46.0306C 58.6663,44.3249 51.9525,40.09 48.3451,40.9218C 48.3451,40.9218 44.5117,41.1076 41.0377,42.6233L 41.0377,45.4776L 49.852,43.4044L 52.957,44.7893M 39.4847,52.706L 33.6851,50.2191L 33.6851,23.1504C 33.6851,23.1504 46.2897,25.27 48.025,30.514C 49.7608,35.7622 47.056,39.1654 46.1077,39.2625C 43.4579,39.5411 42.4534,37.8818 42.4534,37.8818L 42.4534,29.412L 39.5764,28.2129L 39.4847,52.706 Z "/>
</svg>

<svg class="svg-icon" viewBox="0 0 76 76" xmlns="http://www.w3.org/2000/svg" baseProfile="full" xml:space="preserve"><path fill="currentColor" fill-rule="evenodd" d="M32.224 48.746s-1.781.92-5.755.873c-3.973-.046-7.49-1.148-7.444-3.542.045-2.394 6.577-5.02 13.153-6.122v3.36l-6.988 1.842s-1.196 1.52.412 1.562c3.653.105 6.667-.874 6.667-.874m8.723 3.133v3.175s13.655-4.42 15.665-6.122c2.01-1.706-4.704-5.941-8.312-5.11 0 0-3.833.187-7.307 1.702v2.855l8.814-2.074 3.105 1.385m-13.472 7.917-5.8-2.487V23.15s12.605 2.12 14.34 7.364c1.736 5.248-.969 8.651-1.917 8.749-2.65.278-3.655-1.381-3.655-1.381v-8.47l-2.877-1.2-.091 24.494Z"/></svg>
